storage/app/icons/phosphoricons/thin/sim-card-thin.svg

<svg xmlns="http://www.w3.org/2000/svg" fill="currentColor" viewBox="0 0 256 256"><path d="m210.83 85.17-56-56A4 4 0 0 0 152 28H56a12 12 0 0 0-12 12v176a12 12 0 0 0 12 12h144a12 12 0 0 0 12-12V88a4 4 0 0 0-1.17-2.83M204 216a4 4 0 0 1-4 4H56a4 4 0 0 1-4-4V40a4 4 0 0 1 4-4h94.35L204 89.66ZM76 120v72a4 4 0 0 0 4 4h96a4 4 0 0 0 4-4v-72a4 4 0 0 0-4-4H80a4 4 0 0 0-4 4m8 4h88v64h-24v-36a4 4 0 0 0-8 0v36h-24v-36a4 4 0 0 0-8 0v36H84Z"/></svg>

<svg xmlns="http://www.w3.org/2000/svg" viewBox="0 0 256 256" fill="currentColor"><path d="M210.83,85.17l-56-56A4,4,0,0,0,152,28H56A12,12,0,0,0,44,40V216a12,12,0,0,0,12,12H200a12,12,0,0,0,12-12V88A4,4,0,0,0,210.83,85.17ZM204,216a4,4,0,0,1-4,4H56a4,4,0,0,1-4-4V40a4,4,0,0,1,4-4h94.35L204,89.66ZM76,120v72a4,4,0,0,0,4,4h96a4,4,0,0,0,4-4V120a4,4,0,0,0-4-4H80A4,4,0,0,0,76,120Zm8,4h88v64H148V152a4,4,0,0,0-8,0v36H116V152a4,4,0,0,0-8,0v36H84Z"/></svg>
